X:205
T:Polska efter Spel Johannes
T:(SvL Småland 205)
R:Polska
S:Spel Johannes
S:Hjarlmar Thorsjö
B:Svenska Låtar Småland
O:Östra Torsås, Småland
M:3/4
L:1/8
K:Cm
Gc e/d/c/=B/ c2|Gc e/d/c/=B/ c2|cg ge dc|e/d/c/=B/ cG EC|
Gc e/d/c/=B/ c2|Gc e/d/c/=B/ c2|cg ge dc|e/d/c/=B/ c2 C2:|
|:eg ge eg|bg gf fd|eg ge eg|b/a/g/f/ e2 d2|
Gc e/d/c/=B/ c2|Gc e/d/c/=B/ c2|cg ge dc|e/d/c/=B/ c2 C2:|

